X: 38669
T: Strange Drums, The
R: mazurka
M: 3/4
K: Dmajor
F2 FE FA|F2 FE FA|E2 ED EF|E2 DE FA|
F2 FE FA|F2 EA AB|d2 Adde|f2 ed BA|
F3 EFA|F3 EFA|E3 DEF|E2D EFA|

